dist/icons/icons8-hamburger.svg

<svg xmlns="http://www.w3.org/2000/svg"  viewBox="0 0 50 50" width="50px" height="50px"><path d="M 0 7.5 L 0 12.5 L 50 12.5 L 50 7.5 Z M 0 22.5 L 0 27.5 L 50 27.5 L 50 22.5 Z M 0 37.5 L 0 42.5 L 50 42.5 L 50 37.5 Z"/></svg>

<svg xmlns="http://www.w3.org/2000/svg" width="50" height="50"><path d="M0 7.5v5h50v-5zm0 15v5h50v-5zm0 15v5h50v-5z"/></svg>
